X: 259
T:Mr Edward Simpson of Edinburghs Fancy
B:William Marshall's Scottish Airs, Melodies, Strathspeys, Reels &c (1822)
C:William Marshall
L:1/8
M:C|
O:Scotland
Z:Clark Bernst + Richard Robinson
%%Page:53 - 2
F:http://richardrobinson.tunebook.org.uk/tune/4102
%%TBL:{"version":1,"type":"tune","id":"4102"}
K:F
%%staves {1 2}
V:1
~F>GFd .c.B.A.G | ~F>GFa .g.f.e.c | \
(b>g)a>f (g/a/)b/g/ af | (e/f/)g/a/ (g/f/)e/d/ c>d c/B/A/G/ |
F>GFd .c.B.A.G | F>GFa .g.f.e.c | \
(b>g)a>f (g/a/)b/g/ af | !trill!c>f e/f/g/e/ [Acf]2 [Acf]2 |]
(A/B/)c/d/ .c.c ca a2 | (e/f/)g/a/ (g>a) g/f/e/d/ c2 | \
(A/B/)c/d/ .c.c cb b2 | (b/a/)g/f/ (e/f/)g/a/ (a2 g) z |
~F>GFd .c.B.A.G | ~F>GFa .g.f.e.c | \
bgaf (g/a/)b/g/ af | (c>f) e/f/g/e/ [Acf]2 [Acf]2 |]
V:2 middle=d clef=bass
FfFf cc'cc' | FfFf cc'cc' | ec'fa bc'fa | cc'Gg cc'cz | \
FfFf cc'cc' | FfFf cc'cc' | FfFf bc'fa | fac'c fcF2 |] \
FfFf FfFf | cc'cc' Ggcc' | FfFf ee'cc' | fa b/a/g/f/ cc'ce | \
f/c'/a/c'/ f/d'/b/d'/ e/c'/g/c'/ f/c'/e/c'/ | f/c'/a/c'/ f/c'/a/c'/ c/c'/g/c'/ c/c'/g/c'/ | \
e/c'/g/c'/ f/c'/a/c'/ c/c'/e/c'/ f/c'/a/c'/ | f/c'/a/c'/ c/c'/g/c'/ f/c'/a/c'/ f2 |]

